resources/haticons/SVG/local_printshop.svg

<!-- Generated by IcoMoon.io -->
<svg version="1.1" xmlns="http://www.w3.org/2000/svg" width="24" height="24" viewBox="0 0 24 24">
<title>local_printshop</title>
<path d="M18 3v3.984h-12v-3.984h12zM18.984 12q0.422 0 0.727-0.281t0.305-0.703-0.305-0.727-0.727-0.305-0.703 0.305-0.281 0.727 0.281 0.703 0.703 0.281zM15.984 18.984v-4.969h-7.969v4.969h7.969zM18.984 8.016q1.219 0 2.109 0.891t0.891 2.109v6h-3.984v3.984h-12v-3.984h-3.984v-6q0-1.219 0.891-2.109t2.109-0.891h13.969z"></path>
</svg>

<svg xmlns="http://www.w3.org/2000/svg" width="24" height="24"><path d="M18 3v3.984H6V3h12zm.984 9q.422 0 .727-.281t.305-.703-.305-.727-.727-.305-.703.305-.281.727.281.703.703.281zm-3 6.984v-4.969H8.015v4.969h7.969zm3-10.968q1.219 0 2.109.891t.891 2.109v6H18V21H6v-3.984H2.016v-6q0-1.219.891-2.109t2.109-.891h13.969z"/></svg>
